theme-map4trip/src/main/assets/themes/mapsforgeV3/map4trip/symbols/pharmacy.svg

<svg enable-background="new 0 0 18.641 18.641" height="18.641" viewBox="0 0 18.641 18.641" width="18.641" xmlns="http://www.w3.org/2000/svg"><path d="m1.036 0h16.568c.572 0 1.036.464 1.036 1.036v16.568c0 .572-.464 1.036-1.036 1.036h-16.568c-.572 0-1.036-.463-1.036-1.036v-16.568c0-.572.464-1.036 1.036-1.036z" fill="#3aa53a"/><path d="m11.464 7.177v-4.07h-4.287v4.07h-4.07v4.287h4.07v4.069h4.287v-4.069h4.069v-4.287zm-10.169 10.427h16.051c.144 0 .259-.116.259-.259v-16.05c0-.144-.115-.259-.259-.259h-16.051c-.144 0-.259.115-.259.259v16.051c0 .142.115.258.259.258zm.776-1.035v-14.498h14.498v14.498z" fill="#fff"/></svg>

<?xml version="1.0" encoding="utf-8"?>
<!-- Generator: Adobe Illustrator 14.0.0, SVG Export Plug-In . SVG Version: 6.00 Build 43363)  -->
<!DOCTYPE svg PUBLIC "-//W3C//DTD SVG 1.1//EN" "http://www.w3.org/Graphics/SVG/1.1/DTD/svg11.dtd">
<svg version="1.1"
	 id="symbol-pharmacy" xmlns:xs="http://www.w3.org/2001/XMLSchema" xmlns:inkscape="http://www.inkscape.org/namespaces/inkscape" xmlns:rdf="http://www.w3.org/1999/02/22-rdf-syntax-ns#" xmlns:svg="http://www.w3.org/2000/svg" xmlns:cc="http://web.resource.org/cc/" xmlns:xi="http://www.w3.org/2001/XInclude" xmlns:dc="http://purl.org/dc/elements/1.1/"
	 xmlns="http://www.w3.org/2000/svg" xmlns:xlink="http://www.w3.org/1999/xlink" x="0px" y="0px" width="18.641px"
	 height="18.641px" viewBox="0 0 18.641 18.641" enable-background="new 0 0 18.641 18.641" xml:space="preserve">
<path fill="#3AA53A" d="M1.036,0h16.568c0.572,0,1.036,0.464,1.036,1.036v16.568c0,0.572-0.464,1.036-1.036,1.036H1.036
	C0.464,18.64,0,18.177,0,17.604V1.036C0,0.464,0.464,0,1.036,0z"/>
<path fill="#FFFFFF" d="M11.464,7.177v-4.07H7.177v4.07h-4.07v4.287h4.07v4.069h4.287v-4.069h4.069V7.177H11.464z M1.295,17.604
	h16.051c0.144,0,0.259-0.116,0.259-0.259V1.295c0-0.144-0.115-0.259-0.259-0.259H1.295c-0.144,0-0.259,0.115-0.259,0.259v16.051
	C1.036,17.488,1.151,17.604,1.295,17.604z M2.071,16.569V2.071h14.498v14.498H2.071z"/>
</svg>
